X:41
T: Laurdagskveld P\aa Vona (Brad #2)
C: av Leiv Vonen
S: Nordahl Grieg Spelemannslag
O: Norway
A: Sogn og Fjordane, Sunnfjord
R:Reinlender
M: 2/4
L: 1/8
Q:1/4=80
K: G
% %rightmargin 11.5cm
"Intro"|\
"D7"A/F/D/F/ A/c/A/F/ | "G"GG G
% %rightmargin 2.78cm
%P:A
B/d/ |: "G"gg dd | Bd/B/ G2 | DD/G/ B>c | "D7"BA A2 |
aa ff | dd A2 | DD/F/ A>B |[1 "G"AG GB/d/ :|[2 "G"AG G2 |]
%P:B
|:"G"B/G/D/B/ B>c | "D7"BA A2 | A/F/D/F/ A>B | "G"AG G2 |
"G"B/G/D/B/ B>c | "D7"BA A2 | A/F/D/F/ A/c/A/F/ |[1 "G"GG G2 :|[2 "G"GG G |]

